svgs/disk-light.svg

<svg width="400" height="400" viewBox="0 0 400 400" fill="none" xmlns="http://www.w3.org/2000/svg">
<g id="disk">
<g id="disk_2">
<path id="Path" d="M367.289 339.492H32.6109C28.4049 339.492 25 336.091 25 331.889V301.98C25 297.779 28.4049 294.378 32.6109 294.378H367.389C371.595 294.378 375 297.779 375 301.98V331.889C374.9 336.091 371.495 339.492 367.289 339.492Z" fill="#F0F3F5"/>
<path id="Path_2" d="M362.482 322.987V200.45C362.482 196.249 359.077 192.848 354.871 192.848H292.783L292.883 32.4001C292.883 32.2001 292.683 32 292.482 32H193.04C173.312 32 171.109 43.0033 171.109 55.0068V251.565H91.9958C82.8828 251.565 75.3721 259.068 75.3721 268.17V322.887H362.482V322.987Z" fill="#F0F3F5"/>
<path id="Path_3" d="M139.063 151.236H44.9285C41.2232 151.236 38.3191 154.236 38.3191 157.838V316.385C38.3191 320.086 41.3234 322.987 44.9285 322.987H139.063C142.768 322.987 145.672 319.986 145.672 316.385V157.838C145.672 154.236 142.668 151.236 139.063 151.236Z" fill="#F0F3F5"/>
<path id="Path_4" fill-rule="evenodd" clip-rule="evenodd" d="M255.73 368H114.829C102.311 368 91.9961 357.797 91.9961 345.193V142.333C91.9961 129.829 102.211 119.526 114.829 119.526H255.73C268.248 119.526 278.563 129.729 278.563 142.333V345.193C278.563 357.797 268.248 368 255.73 368V368Z" stroke="#999999" stroke-width="4" stroke-linecap="round" stroke-linejoin="round" stroke-dasharray="4 10"/>
<path id="Path_5" d="M307.504 84.9157L180.923 75.5129C175.415 75.1128 164.299 78.1137 154.585 80.8145C144.871 83.4153 137.661 89.9172 137.661 103.221V288.476C137.661 301.28 140.865 306.482 150.379 309.082L173.512 312.683C176.116 313.684 179.02 314.184 181.824 313.984C186.431 313.784 194.642 313.484 205.458 312.984C252.124 311.083 316.316 307.382 318.419 305.581C323.226 301.58 325.429 293.978 325.429 286.676V107.422C325.529 95.8189 317.418 85.7159 307.504 84.9157Z" fill="#FFBE5C"/>
<path id="Path_6" d="M309.907 308.482L183.326 314.084C171.91 314.584 162.396 304.681 162.396 291.977V96.8194C162.396 84.1156 171.81 74.5127 183.326 75.3129L309.907 84.7157C319.821 85.416 327.933 95.619 327.933 107.222V286.476C327.833 298.179 319.821 308.082 309.907 308.482Z" fill="#FFD493"/>
<path id="Shape" d="M250.523 165.238L250.874 163.269C250.863 163.267 250.851 163.265 250.84 163.264L250.523 165.238ZM294.886 249.665L296.243 251.134C296.248 251.13 296.252 251.125 296.257 251.121L294.886 249.665ZM278.162 246.464L279.924 245.516C279.921 245.512 279.919 245.508 279.917 245.503L278.162 246.464ZM258.234 210.053L259.988 209.092L259.986 209.088L258.234 210.053ZM270.752 198.949L272.302 197.686L272.295 197.677L270.752 198.949ZM296.088 230.059L297.657 228.819C297.651 228.811 297.645 228.803 297.639 228.796L296.088 230.059ZM261.423 178.663C262.221 171.49 257.685 164.484 250.874 163.269L250.172 167.207C254.577 167.993 258.052 172.791 257.448 178.221L261.423 178.663ZM250.84 163.264C243.872 162.145 237.917 167.631 237.118 174.924L241.095 175.359C241.698 169.848 245.958 166.531 250.206 167.213L250.84 163.264ZM237.118 174.924C236.322 182.199 240.967 189.223 247.802 190.32L248.436 186.371C244.056 185.667 240.489 180.888 241.095 175.359L237.118 174.924ZM247.802 190.32C254.806 191.444 260.628 185.812 261.423 178.663L257.448 178.221C256.841 183.676 252.649 187.047 248.436 186.371L247.802 190.32ZM293.529 248.195C289.244 252.153 282.95 251.143 279.924 245.516L276.401 247.411C280.585 255.188 289.913 256.979 296.243 251.134L293.529 248.195ZM279.917 245.503L259.988 209.092L256.479 211.013L276.408 247.424L279.917 245.503ZM259.986 209.088C258.202 205.849 258.903 201.673 261.378 199.432L258.694 196.466C254.761 200.027 253.859 206.254 256.482 211.017L259.986 209.088ZM261.378 199.432C263.669 197.359 267.07 197.628 269.208 200.222L272.295 197.677C268.825 193.469 262.813 192.738 258.694 196.466L261.378 199.432ZM269.201 200.212L294.537 231.322L297.639 228.796L272.302 197.686L269.201 200.212ZM294.519 231.299C298.413 236.226 297.931 244.052 293.515 248.208L296.257 251.121C302.256 245.474 302.775 235.294 297.657 228.819L294.519 231.299Z" fill="#DD7E10"/>
<path id="Path_7" d="M294.485 228.16C303.598 217.256 309.807 202.952 311.41 186.747C315.315 147.836 291.381 111.025 256.932 104.123C221.181 97.0207 187.533 124.629 183.026 166.141C178.52 207.854 205.358 245.565 241.71 249.966C254.128 251.467 266.045 248.866 276.359 243.164" stroke="#DD7E10" stroke-width="4" stroke-linecap="round" stroke-linejoin="round"/>
<path id="Path_8" d="M309.907 84.7157L283.569 82.7151V107.422C283.569 109.823 285.572 111.924 287.976 112.024L305.501 112.824C312.411 113.324 313.011 119.126 314.413 122.927C314.714 123.827 316.016 123.827 316.216 122.927C317.217 119.326 318.619 113.424 324.027 113.724L327.833 113.924V107.222C327.833 95.6189 319.821 85.5159 309.907 84.7157Z" fill="#DCA553"/>
<g id="Group">
<path id="Path_9" d="M349.464 46.6027L294.485 40.901C292.082 40.801 290.079 42.7015 290.079 45.2023V98.018C290.079 100.419 292.082 102.519 294.485 102.619L312.01 103.42C318.92 103.92 319.521 109.721 320.923 113.523C321.223 114.423 322.525 114.423 322.725 113.523C323.727 109.922 325.129 104.02 330.537 104.32L349.464 105.22C351.867 105.32 353.87 103.42 353.87 100.919V51.2041C353.87 48.8033 351.867 46.7027 349.464 46.6027Z" fill="#FFBE5C"/>
<path id="Shape_2" d="M324.725 59.6067C324.725 58.5021 323.83 57.6067 322.725 57.6067C321.621 57.6067 320.725 58.5021 320.725 59.6067H324.725ZM320.725 87.0148C320.725 88.1194 321.621 89.0148 322.725 89.0148C323.83 89.0148 324.725 88.1194 324.725 87.0148H320.725ZM309.252 69.8157C308.151 69.735 307.192 70.5626 307.111 71.6642C307.031 72.7658 307.858 73.7243 308.96 73.805L309.252 69.8157ZM334.897 75.705C335.999 75.7857 336.957 74.958 337.038 73.8564C337.118 72.7548 336.291 71.7964 335.189 71.7157L334.897 75.705ZM320.725 59.6067V87.0148H324.725V59.6067H320.725ZM308.96 73.805L334.897 75.705L335.189 71.7157L309.252 69.8157L308.96 73.805Z" fill="white"/>
</g>
</g>
</g>
</svg>

<svg xmlns="http://www.w3.org/2000/svg" width="400" height="400" fill="none" viewBox="0 0 400 400"><path fill="#F0F3F5" d="M367.289 339.492H32.611A7.603 7.603 0 0 1 25 331.889V301.98a7.603 7.603 0 0 1 7.61-7.602h334.78a7.603 7.603 0 0 1 7.61 7.602v29.909c-.1 4.202-3.505 7.603-7.711 7.603"/><path fill="#F0F3F5" d="M362.482 322.987V200.45a7.603 7.603 0 0 0-7.611-7.602h-62.088l.1-160.448c0-.2-.2-.4-.401-.4H193.04c-19.728 0-21.931 11.003-21.931 23.007v196.558H91.996c-9.113 0-16.624 7.503-16.624 16.605v54.717h287.11z"/><path fill="#F0F3F5" d="M139.063 151.236H44.929c-3.706 0-6.61 3-6.61 6.602v158.547c0 3.701 3.004 6.602 6.61 6.602h94.134a6.6 6.6 0 0 0 6.609-6.602V157.838c0-3.602-3.004-6.602-6.609-6.602"/><path stroke="#999" stroke-dasharray="4 10" stroke-linecap="round" stroke-linejoin="round" stroke-width="4" d="M255.73 368H114.829c-12.518 0-22.833-10.203-22.833-22.807v-202.86c0-12.504 10.215-22.807 22.833-22.807H255.73c12.518 0 22.833 10.203 22.833 22.807v202.86c0 12.604-10.315 22.807-22.833 22.807" clip-rule="evenodd"/><path fill="#FFBE5C" d="m307.504 84.916-126.581-9.403c-5.508-.4-16.624 2.6-26.338 5.301-9.714 2.601-16.924 9.103-16.924 22.407v185.255c0 12.804 3.204 18.006 12.718 20.606l23.133 3.601c2.604 1.001 5.508 1.501 8.312 1.301 4.607-.2 12.818-.5 23.634-1 46.666-1.901 110.858-5.602 112.961-7.403 4.807-4.001 7.01-11.603 7.01-18.905V107.422c.1-11.603-8.011-21.706-17.925-22.506"/><path fill="#FFD493" d="m309.907 308.482-126.581 5.602c-11.416.5-20.93-9.403-20.93-22.107V96.819c0-12.703 9.414-22.306 20.93-21.506l126.581 9.403c9.914.7 18.026 10.903 18.026 22.506v179.254c-.1 11.703-8.112 21.606-18.026 22.006"/><path fill="#DD7E10" d="m250.523 165.238.351-1.969-.034-.005zm44.363 84.427 1.357 1.469.014-.013zm-16.724-3.201 1.762-.948-.007-.013zm-19.928-36.411 1.754-.961-.002-.004zm12.518-11.104 1.55-1.263-.007-.009zm25.336 31.11 1.569-1.24-.018-.023zm-34.665-51.396c.798-7.173-3.738-14.179-10.549-15.394l-.702 3.938c4.405.786 7.88 5.584 7.276 11.014zm-10.583-15.399c-6.968-1.119-12.923 4.367-13.722 11.66l3.977.435c.603-5.511 4.863-8.828 9.111-8.146zm-13.722 11.66c-.796 7.275 3.849 14.299 10.684 15.396l.634-3.949c-4.38-.704-7.947-5.483-7.341-11.012zm10.684 15.396c7.004 1.124 12.826-4.508 13.621-11.657l-3.975-.442c-.607 5.455-4.799 8.826-9.012 8.15zm45.727 57.875c-4.285 3.958-10.579 2.948-13.605-2.679l-3.523 1.895c4.184 7.777 13.512 9.568 19.842 3.723zm-13.612-2.692-19.929-36.411-3.509 1.921 19.929 36.411zm-19.931-36.415c-1.784-3.239-1.083-7.415 1.392-9.656l-2.684-2.966c-3.933 3.561-4.835 9.788-2.212 14.551zm1.392-9.656c2.291-2.073 5.692-1.804 7.83.79l3.087-2.545c-3.47-4.208-9.482-4.939-13.601-1.211zm7.823.78 25.336 31.11 3.102-2.526-25.337-31.11zm25.318 31.087c3.894 4.927 3.412 12.753-1.004 16.909l2.742 2.913c5.999-5.647 6.518-15.827 1.4-22.302z"/><path stroke="#DD7E10" stroke-linecap="round" stroke-linejoin="round" stroke-width="4" d="M294.485 228.16c9.113-10.904 15.322-25.208 16.925-41.413 3.905-38.911-20.029-75.722-54.478-82.624-35.751-7.102-69.399 20.506-73.906 62.018-4.506 41.713 22.332 79.424 58.684 83.825 12.418 1.501 24.335-1.1 34.649-6.802"/><path fill="#DCA553" d="m309.907 84.716-26.338-2v24.706c0 2.401 2.003 4.502 4.407 4.602l17.525.8c6.91.5 7.51 6.302 8.912 10.103.301.9 1.603.9 1.803 0 1.001-3.601 2.403-9.503 7.811-9.203l3.806.2v-6.702c0-11.603-8.012-21.706-17.926-22.506"/><path fill="#FFBE5C" d="M349.464 46.603 294.485 40.9c-2.403-.1-4.406 1.8-4.406 4.301v52.816c0 2.401 2.003 4.501 4.406 4.601l17.525.801c6.91.5 7.511 6.301 8.913 10.103.3.9 1.602.9 1.802 0 1.002-3.601 2.404-9.503 7.812-9.203l18.927.9c2.403.1 4.406-1.8 4.406-4.301V51.204c0-2.4-2.003-4.501-4.406-4.601"/><path fill="#fff" d="M324.725 59.607a2 2 0 1 0-4 0zm-4 27.408a2 2 0 0 0 4 0zm-11.473-17.2a2 2 0 0 0-.292 3.99zm25.645 5.89a2 2 0 1 0 .292-3.99zm-14.172-16.098v27.408h4V59.607zM308.96 73.805l25.937 1.9.292-3.99-25.937-1.9z"/></svg>
